modules/themify-icons/icons/pencil-alt2.svg

<?xml version="1.0" encoding="utf-8"?>
<!-- Generated by IcoMoon.io -->
<!DOCTYPE svg PUBLIC "-//W3C//DTD SVG 1.1//EN" "http://www.w3.org/Graphics/SVG/1.1/DTD/svg11.dtd">
<svg version="1.1" xmlns="http://www.w3.org/2000/svg" xmlns:xlink="http://www.w3.org/1999/xlink" width="17" height="17" viewBox="0 0 17 17">
<g>
</g>
	<path d="M9.492 0h-1.984c-0.827 0-1.5 0.673-1.5 1.5v10.657l2.521 4.956 2.464-4.959v-10.654c-0.001-0.827-0.674-1.5-1.501-1.5zM7.508 1h1.984c0.275 0 0.5 0.225 0.5 0.5v1.019h-2.984v-1.019c0-0.275 0.224-0.5 0.5-0.5zM8.078 14.021l-0.934-1.835h2.715l-0.911 1.835h-0.87zM7.008 11.187v-5.637h2.984v5.637h-2.984zM7.008 4.55v-1.031h2.984v1.031h-2.984z" fill="#000000" />
</svg>

<svg xmlns="http://www.w3.org/2000/svg" width="17" height="17" viewBox="0 0 17 17"><path d="M9.492 0H7.508c-.827 0-1.5.673-1.5 1.5v10.657l2.521 4.956 2.464-4.959V1.5A1.503 1.503 0 009.492 0zM7.508 1h1.984c.275 0 .5.225.5.5v1.019H7.008V1.5a.5.5 0 01.5-.5zm.57 13.021l-.934-1.835h2.715l-.911 1.835h-.87zm-1.07-2.834V5.55h2.984v5.637H7.008zm0-6.637V3.519h2.984V4.55H7.008z"/></svg>
